X:1
T: Another Nancy's Fancy
N:
C:Pat Shaw / Christopher Fuldham-Shaw
S:aka "The Lang Staff"
A:
O:
R:
M:3/2
K:G
I:speed 150
%W: A1
% voice 1 (1 lines, 24 notes)
K:G
M:3/2
L:1/16
G8 |B8 |c8 |d4 e2 |d2 c4 |B4 c4 |A4 B4 |c2 B2 A4 |G4 A4 |D4 E12 |F4 G4 |A4 B12 |c4 A8 |
%W:
% voice 1 (1 lines, 26 notes)
G8 |B8 |c8 |d4 e2 |d2 c4 |B4 c4 |A4 B4 |c2 B2 A4 |G4 A4 |D4 E6 |F2 G4 |A4 B4 |c4 A12 |G4 G8 |
%W: A2
% voice 1 (1 lines, 24 notes)
G8 |B8 |c8 |d4 e2 |d2 c4 |B4 c4 |A4 B4 |c2 B2 A4 |G4 A4 |D4 E12 |F4 G4 |A4 B12 |c4 A8 |
%W:
% voice 1 (1 lines, 26 notes)
G8 |B8 |c8 |d4 e2 |d2 c4 |B4 c4 |A4 B4 |c2 B2 A4 |G4 A4 |D4 E6 |F2 G4 |A4 B4 |c4 A12 |G4 G8 |
%W: B1
% voice 1 (1 lines, 28 notes)
g4 a2 |g2 f4 |e4 f4 |d4 =f4 |g2 f2 e4 |d4 e4 |c4 d4 |e2 d2 c4 |B4 A4 |G4 F6 |G2 A2 G2 |F2 E2 D8 |
%W:
% voice 1 (1 lines, 27 notes)
E6 |D2 E2 F2 |G2 A2 B4 |d4 e4 |g8 |a2 g2 f4 |d4 g6 |a2 b2 a2 |g2 f2 e2 |d2 c2 B2 |A12 |G4 G8 |
%W: B2
% voice 1 (1 lines, 28 notes)
g4 a2 |g2 f4 |e4 f4 |d4 =f4 |g2 f2 e4 |d4 e4 |c4 d4 |e2 d2 c4 |B4 A4 |G4 F6 |G2 A2 G2 |F2 E2 D8 |
%W:
% voice 1 (1 lines, 27 notes)
E6 |D2 E2 F2 |G2 A2 B4 |d4 e4 |g8 |a2 g2 f4 |d4 g6 |a2 b2 a2 |g2 f2 e2 |d2 c2 B2 |A12 |G4 G8 ||
